X: 11
T: The Lisnagun
R: jig
M: 6/8
L: 1/8
K: Dmaj
dBA d3 | efa f3 | efa f3 | edB dBA |
dBA dcd | efa f3 | efa fed|1 edB dBA :|2 edB def ||
|: a3 f2 e | efa f3 | efa f3 | edB def |
aga fee | efa f3 | eff fed | edB def |
aga b2 f | efa f3 | efa fed | edB dBA |
dBA dcd | efa f3 | efa efa | efa efa |


Tune 3842	Setting 26367

